www/images/social/facebook.svg

<svg height="512pt" viewBox="0 0 512 512" width="512pt" xmlns="http://www.w3.org/2000/svg"><path fill="#fefeff" d="m297.277344 508.667969c-2.132813.347656-4.273438.667969-6.421875.960937 2.148437-.292968 4.289062-.613281 6.421875-.960937zm0 0"/><path fill="#fefeff" d="m302.398438 507.792969c-1.019532.1875-2.039063.359375-3.058594.535156 1.019531-.175781 2.039062-.347656 3.058594-.535156zm0 0"/><path fill="#fefeff" d="m285.136719 510.339844c-2.496094.28125-5.007813.53125-7.527344.742187 2.519531-.210937 5.03125-.460937 7.527344-.742187zm0 0"/><path fill="#fefeff" d="m290.054688 509.738281c-1.199219.160157-2.40625.308594-3.609376.449219 1.203126-.140625 2.410157-.289062 3.609376-.449219zm0 0"/><path fill="#fefeff" d="m309.367188 506.410156c-.898438.191406-1.800782.382813-2.703126.566406.902344-.183593 1.804688-.375 2.703126-.566406zm0 0"/><path fill="#fefeff" d="m326.664062 502.113281c-.726562.207031-1.453124.402344-2.179687.605469.726563-.203125 1.453125-.398438 2.179687-.605469zm0 0"/><path fill="#fefeff" d="m321.433594 503.542969c-.789063.207031-1.582032.417969-2.375.617187.792968-.199218 1.585937-.40625 2.375-.617187zm0 0"/><path fill="#fefeff" d="m314.589844 505.253906c-.835938.195313-1.679688.378906-2.523438.566406.84375-.1875 1.6875-.371093 2.523438-.566406zm0 0"/><path fill="#fefeff" d="m277.527344 511.089844c-1.347656.113281-2.695313.214844-4.046875.304687 1.351562-.089843 2.699219-.191406 4.046875-.304687zm0 0"/><path fill="#fefeff" d="m512 256c0-141.363281-114.636719-256-256-256s-256 114.636719-256 256 114.636719 256 256 256c1.503906 0 3-.03125 4.5-.058594v-199.285156h-55v-64.097656h55v-47.167969c0-54.703125 33.394531-84.476563 82.191406-84.476563 23.367188 0 43.453125 1.742188 49.308594 2.519532v57.171875h-33.648438c-26.546874 0-31.6875 12.617187-31.6875 31.128906v40.824219h63.476563l-8.273437 64.097656h-55.203126v189.453125c107.003907-30.675781 185.335938-129.257813 185.335938-246.109375zm0 0"/><path fill="#fefeff" d="m272.914062 511.429688c-2.664062.171874-5.339843.308593-8.023437.398437 2.683594-.089844 5.359375-.226563 8.023437-.398437zm0 0"/><path fill="#fefeff" d="m264.753906 511.835938c-1.414062.046874-2.832031.082031-4.25.105468 1.417969-.023437 2.835938-.058594 4.25-.105468zm0 0"/></svg>

<svg height="512pt" viewBox="0 0 512 512" width="512pt" xmlns="http://www.w3.org/2000/svg"><path fill="#fefeff" d="M297.277 508.668zm0 0M302.398 507.793c-1.02.187-2.039.36-3.058.535 1.02-.176 2.039-.348 3.058-.535zm0 0M285.137 510.34zm0 0M290.055 509.738zm0 0M309.367 506.41zm0 0M326.664 502.113c-.726.207-1.453.403-2.18.606.727-.203 1.454-.399 2.18-.606zm0 0M321.434 503.543c-.79.207-1.582.418-2.375.617.793-.2 1.586-.406 2.375-.617zm0 0M314.59 505.254c-.836.195-1.68.379-2.524.566.844-.187 1.688-.37 2.524-.566zm0 0M277.527 511.09zm0 0M512 256C512 114.637 397.363 0 256 0S0 114.637 0 256s114.637 256 256 256c1.504 0 3-.031 4.5-.059V312.656h-55V248.56h55V201.39c0-54.703 33.395-84.477 82.191-84.477 23.368 0 43.454 1.742 49.309 2.52v57.171h-33.648c-26.547 0-31.688 12.618-31.688 31.13v40.824h63.477l-8.274 64.097h-55.203V502.11C433.668 471.434 512 372.852 512 256zm0 0M272.914 511.43zm0 0M264.754 511.836zm0 0"/></svg>
